src/assets/stacks/gemini.svg

<?xml version="1.0" encoding="UTF-8"?>
<svg width="512px" height="188px" viewBox="0 0 512 188" version="1.1" xmlns="http://www.w3.org/2000/svg" preserveAspectRatio="xMidYMid">
    <title>Google Gemini</title>
    <defs>
        <radialGradient cx="85.7378067%" cy="25.3543988%" fx="85.7378067%" fy="25.3543988%" r="103.153538%" gradientTransform="translate(0.8574, 0.2535), scale(1, 0.9679), rotate(150.3278), scale(1, 0.7934), translate(-0.8574, -0.2535)" id="radialGradient-1">
            <stop stop-color="#5BAEFF" offset="0%"></stop>
            <stop stop-color="#9CBFFF" offset="100%"></stop>
        </radialGradient>
        <radialGradient cx="61.8793965%" cy="26.6828625%" fx="61.8793965%" fy="26.6828625%" r="80.6124904%" gradientTransform="translate(0.6188, 0.2668), scale(1, 0.9195), rotate(98.4742), translate(-0.6188, -0.2668)" id="radialGradient-2">
            <stop stop-color="#409DFF" offset="0%"></stop>
            <stop stop-color="#64B0FF" offset="100%"></stop>
        </radialGradient>
        <radialGradient cx="53.1835515%" cy="19.020672%" fx="53.1835515%" fy="19.020672%" r="110.788892%" gradientTransform="translate(0.5318, 0.1902), scale(0.6801, 1), rotate(103.8029), translate(-0.5318, -0.1902)" id="radialGradient-3">
            <stop stop-color="#177CFF" offset="0%"></stop>
            <stop stop-color="#4DA4FF" offset="100%"></stop>
        </radialGradient>
        <linearGradient x1="48.8869581%" y1="8.8089889%" x2="48.8869581%" y2="100%" id="linearGradient-4">
            <stop stop-color="#076EFF" offset="0%"></stop>
            <stop stop-color="#3E93FF" offset="100%"></stop>
        </linearGradient>
        <radialGradient cx="-182.665112%" cy="10.8690524%" fx="-182.665112%" fy="10.8690524%" r="521.40404%" gradientTransform="translate(-1.8267, 0.1087), scale(1, 0.1796), rotate(65.4128), translate(1.8267, -0.1087)" id="radialGradient-5">
            <stop stop-color="#1C7AFF" offset="0%"></stop>
            <stop stop-color="#76A9FF" offset="100%"></stop>
            <stop stop-color="#8FB9FF" offset="100%"></stop>
        </radialGradient>
        <linearGradient x1="13.2168914%" y1="-3.59604638e-14%" x2="78.5979895%" y2="94.2005723%" id="linearGradient-6">
            <stop stop-color="#076EFF" offset="0%"></stop>
            <stop stop-color="#69A3FF" offset="100%"></stop>
        </linearGradient>
    </defs>
    <g>
        <path d="M125.938628,126.640857 C125.938628,144.035695 120.778159,157.893583 110.457222,168.21452 C98.8606632,180.506872 83.6111885,186.653048 64.7087977,186.653048 C46.6181661,186.653048 31.3107086,180.390907 18.7864252,167.866623 C6.26214172,155.34234 0,139.918917 0,121.596354 C0,103.273791 6.26214172,87.8503679 18.7864252,75.3260844 C31.3107086,62.801801 46.6181661,56.5396593 64.7087977,56.5396593 C73.8700791,56.5396593 82.5095154,58.1631775 90.6271065,61.410214 C98.7446976,64.6572504 105.412719,69.2378911 110.63117,75.1521361 L99.1505772,86.6327292 C95.3237128,81.9941057 90.3661839,78.3701811 84.2779906,75.7609554 C78.1897973,73.1517297 71.666733,71.8471168 64.7087977,71.8471168 C51.140824,71.8471168 39.6602309,76.5437231 30.2670183,85.9369357 C20.9897713,95.4461138 16.3511478,107.332587 16.3511478,121.596354 C16.3511478,135.860121 20.9897713,147.746594 30.2670183,157.255772 C39.6602309,166.648984 51.140824,171.345591 64.7087977,171.345591 C77.1171156,171.345591 87.4380529,167.866623 95.6716096,160.908688 C103.905166,153.950753 108.659755,144.383592 109.935377,132.207205 L64.7087977,132.207205 L64.7087977,117.247644 L125.068886,117.247644 C125.648714,120.494681 125.938628,123.625752 125.938628,126.640857 Z" fill="url(#radialGradient-1)"></path>
        <path d="M176.170162,96.2050459 C188.938234,96.2050459 199.09998,100.33417 206.655399,108.592419 C214.210819,116.850668 217.988528,128.418073 217.988528,143.294635 L217.812821,145.051709 L150.165463,145.051709 C150.39974,153.485665 153.211059,160.279686 158.599419,165.43377 C163.98778,170.587854 170.430386,173.164897 177.927236,173.164897 C188.235405,173.164897 196.317946,168.010812 202.17486,157.702644 L216.582869,164.73094 C212.717305,171.993514 207.358229,177.67472 200.50564,181.77456 C193.65305,185.8744 185.892639,187.92432 177.224406,187.92432 C164.573472,187.92432 154.148165,183.590204 145.948485,174.921971 C137.748805,166.253738 133.648966,155.301309 133.648966,142.064683 C133.648966,128.945195 137.631667,118.022051 145.59707,109.295249 C153.562473,100.568447 163.753504,96.2050459 176.170162,96.2050459 Z M175.818747,110.964469 C169.727556,110.964469 164.485618,112.838682 160.092933,116.587107 C155.700247,120.335532 152.801075,125.372478 151.395415,131.697945 L200.769201,131.697945 C200.300648,125.723893 197.870028,120.7748 193.477343,116.850668 C189.084657,112.926536 183.198459,110.964469 175.818747,110.964469 Z" fill="url(#radialGradient-2)"></path>
        <path d="M244.493249,184.843311 L228.377201,184.843311 L228.377201,99.0078369 L243.792551,99.0078369 L243.792551,110.919699 L244.493249,110.919699 C246.945691,106.715512 250.711941,103.212023 255.792,100.409232 C260.872059,97.6064414 265.922922,96.2050459 270.944589,96.2050459 C277.250869,96.2050459 282.798059,97.6648328 287.58616,100.584407 C292.374262,103.503981 295.87775,107.532993 298.096627,112.671443 C305.220387,101.693845 315.088547,96.2050459 327.701106,96.2050459 C337.627658,96.2050459 345.276942,99.2414028 350.648958,105.314117 C356.020974,111.38683 358.706982,120.028769 358.706982,131.239933 L358.706982,184.843311 L342.590934,184.843311 L342.590934,133.692375 C342.590934,125.634351 341.131147,119.824399 338.211573,116.262519 C335.291999,112.700639 330.387114,110.919699 323.49692,110.919699 C317.307423,110.919699 312.110582,113.547315 307.906395,118.802548 C303.702209,124.057781 301.600115,130.247278 301.600115,137.371039 L301.600115,184.843311 L285.484067,184.843311 L285.484067,133.692375 C285.484067,125.634351 284.02428,119.824399 281.104706,116.262519 C278.185132,112.700639 273.280248,110.919699 266.390054,110.919699 C260.200557,110.919699 255.003715,113.547315 250.799529,118.802548 C246.595342,124.057781 244.493249,130.247278 244.493249,137.371039 L244.493249,184.843311 Z" fill="url(#radialGradient-3)"></path>
        <path d="M393.262645,69.2157718 C393.262645,72.3740354 392.151404,75.0644081 389.928922,77.2868899 C387.706441,79.5093717 385.016068,80.6206125 381.857804,80.6206125 C378.699541,80.6206125 376.009168,79.5093717 373.786686,77.2868899 C371.564204,75.0644081 370.452964,72.3740354 370.452964,69.2157718 C370.452964,66.0575082 371.564204,63.3671355 373.786686,61.1446538 C376.009168,58.922172 378.699541,57.8109311 381.857804,57.8109311 C385.016068,57.8109311 387.706441,58.922172 389.928922,61.1446538 C392.151404,63.3671355 393.262645,66.0575082 393.262645,69.2157718 Z M389.928922,98.8683577 L389.928922,184.843311 L373.786686,184.843311 L373.786686,98.8683577 L389.928922,98.8683577 Z" fill="url(#linearGradient-4)"></path>
        <path d="M512,69.2157718 C512,72.3740354 510.888759,75.0644081 508.666277,77.2868899 C506.443796,79.5093717 503.753423,80.6206125 500.595159,80.6206125 C497.436896,80.6206125 494.746523,79.5093717 492.524041,77.2868899 C490.301559,75.0644081 489.190319,72.3740354 489.190319,69.2157718 C489.190319,66.0575082 490.301559,63.3671355 492.524041,61.1446538 C494.746523,58.922172 497.436896,57.8109311 500.595159,57.8109311 C503.753423,57.8109311 506.443796,58.922172 508.666277,61.1446538 C510.888759,63.3671355 512,66.0575082 512,69.2157718 Z M508.666277,98.8683577 L508.666277,184.843311 L492.524041,184.843311 L492.524041,98.8683577 L508.666277,98.8683577 Z" fill="url(#radialGradient-5)"></path>
        <path d="M404.003505,99.0078369 L419.418856,99.0078369 L419.418856,110.919699 L420.119553,110.919699 C422.571995,106.715512 426.338246,103.212023 431.418305,100.409232 C436.498363,97.6064414 441.782792,96.2050459 447.271591,96.2050459 C457.782057,96.2050459 465.869277,99.212207 471.533251,105.226529 C477.197224,111.240852 480.029211,119.795203 480.029211,130.889584 L480.029211,184.843311 L463.913163,184.843311 L463.913163,131.940631 C463.562814,117.926676 456.497445,110.919699 442.717056,110.919699 C436.293993,110.919699 430.921977,113.518119 426.601008,118.714961 C422.280038,123.911803 420.119553,130.130495 420.119553,137.371039 L420.119553,184.843311 L404.003505,184.843311 L404.003505,99.0078369 Z" fill="url(#linearGradient-6)"></path>
        <path d="M348.374463,72.7592175 L348.374463,72.7592175 L348.374463,72.7592175 C345.527519,53.9721998 330.781872,39.2265525 311.994854,36.3796088 L311.994854,36.3796088 L311.994854,36.3796088 C330.781872,33.532665 345.527519,18.7870177 348.374463,4.80899046e-15 L348.374463,0 L348.374463,0 C351.221406,18.7870177 365.967054,33.532665 384.754071,36.3796088 L384.754071,36.3796088 L384.754071,36.3796088 C365.967054,39.2265525 351.221406,53.9721998 348.374463,72.7592175 Z" fill="#076EFF"></path>
    </g>
</svg>

<svg xmlns="http://www.w3.org/2000/svg" width="512" height="188" preserveAspectRatio="xMidYMid"><defs><radialGradient id="a" cx="85.738%" cy="25.354%" r="103.154%" fx="85.738%" fy="25.354%" gradientTransform="matrix(-.86887 .47915 -.39276 -.66723 1.702 .012)"><stop offset="0%" stop-color="#5BAEFF"/><stop offset="100%" stop-color="#9CBFFF"/></radialGradient><radialGradient id="b" cx="61.879%" cy="26.683%" r="80.612%" fx="61.879%" fy="26.683%" gradientTransform="scale(-1 -.9195) rotate(-81.526 -.323 .706)"><stop offset="0%" stop-color="#409DFF"/><stop offset="100%" stop-color="#64B0FF"/></radialGradient><radialGradient id="c" cx="53.184%" cy="19.021%" r="110.789%" fx="53.184%" fy="19.021%" gradientTransform="scale(-.6801 -1) rotate(-76.197 -.368 .838)"><stop offset="0%" stop-color="#177CFF"/><stop offset="100%" stop-color="#4DA4FF"/></radialGradient><radialGradient id="e" cx="-182.665%" cy="10.869%" r="521.404%" fx="-182.665%" fy="10.869%" gradientTransform="scale(1 .1796) rotate(65.413 -2.213 .357)"><stop offset="0%" stop-color="#1C7AFF"/><stop offset="100%" stop-color="#76A9FF"/><stop offset="100%" stop-color="#8FB9FF"/></radialGradient><linearGradient id="d" x1="48.887%" x2="48.887%" y1="8.809%" y2="100%"><stop offset="0%" stop-color="#076EFF"/><stop offset="100%" stop-color="#3E93FF"/></linearGradient><linearGradient id="f" x1="13.217%" x2="78.598%" y1="0%" y2="94.201%"><stop offset="0%" stop-color="#076EFF"/><stop offset="100%" stop-color="#69A3FF"/></linearGradient></defs><path fill="url(#a)" d="M125.939 126.64c0 17.396-5.16 31.254-15.482 41.575-11.596 12.292-26.846 18.438-45.748 18.438-18.09 0-33.398-6.262-45.923-18.786C6.262 155.342 0 139.919 0 121.597c0-18.323 6.262-33.747 18.786-46.27C31.311 62.801 46.618 56.54 64.71 56.54c9.161 0 17.8 1.623 25.918 4.87 8.118 3.247 14.786 7.828 20.004 13.742l-11.48 11.48c-3.827-4.638-8.785-8.262-14.873-10.871-6.088-2.61-12.611-3.914-19.57-3.914-13.567 0-25.048 4.697-34.441 14.09-9.277 9.51-13.916 21.396-13.916 35.66 0 14.263 4.639 26.15 13.916 35.659 9.393 9.393 20.874 14.09 34.442 14.09 12.408 0 22.73-3.48 30.963-10.437 8.233-6.958 12.988-16.525 14.263-28.702H64.71v-14.96h60.36c.58 3.248.87 6.379.87 9.394Z"/><path fill="url(#b)" d="M176.17 96.205c12.768 0 22.93 4.13 30.485 12.387 7.556 8.259 11.334 19.826 11.334 34.703l-.176 1.757h-67.648c.235 8.434 3.046 15.228 8.434 20.382 5.389 5.154 11.831 7.73 19.328 7.73 10.308 0 18.39-5.153 24.248-15.461l14.408 7.028c-3.866 7.263-9.225 12.944-16.077 17.044-6.853 4.1-14.613 6.15-23.282 6.15-12.65 0-23.076-4.335-31.276-13.003s-12.299-19.62-12.299-32.857c0-13.12 3.983-24.043 11.948-32.77 7.965-8.727 18.157-13.09 30.573-13.09Zm-.351 14.76c-6.091 0-11.333 1.874-15.726 5.622-4.393 3.749-7.292 8.785-8.698 15.11h49.374c-.468-5.973-2.899-10.922-7.292-14.846-4.392-3.924-10.279-5.887-17.658-5.887Z"/><path fill="url(#c)" d="M244.493 184.843h-16.116V99.008h15.416v11.912h.7c2.453-4.204 6.219-7.708 11.299-10.51 5.08-2.804 10.13-4.205 15.153-4.205 6.306 0 11.853 1.46 16.641 4.38 4.788 2.919 8.292 6.948 10.51 12.086 7.124-10.977 16.993-16.466 29.605-16.466 9.927 0 17.576 3.036 22.948 9.11 5.372 6.072 8.058 14.714 8.058 25.925v53.603h-16.116v-51.15c0-8.059-1.46-13.869-4.38-17.43-2.919-3.562-7.824-5.343-14.714-5.343-6.19 0-11.386 2.627-15.59 7.883-4.205 5.255-6.307 11.444-6.307 18.568v47.472h-16.116v-51.15c0-8.059-1.46-13.869-4.38-17.43-2.919-3.562-7.824-5.343-14.714-5.343-6.19 0-11.386 2.627-15.59 7.883-4.205 5.255-6.307 11.444-6.307 18.568v47.472Z"/><path fill="url(#d)" d="M393.263 69.216c0 3.158-1.112 5.848-3.334 8.07-2.223 2.223-4.913 3.335-8.071 3.335-3.158 0-5.849-1.112-8.071-3.334-2.223-2.223-3.334-4.913-3.334-8.071 0-3.158 1.111-5.849 3.334-8.071 2.222-2.223 4.913-3.334 8.07-3.334 3.16 0 5.85 1.111 8.072 3.334 2.222 2.222 3.334 4.913 3.334 8.07Zm-3.334 29.652v85.975h-16.142V98.868h16.142Z"/><path fill="url(#e)" d="M512 69.216c0 3.158-1.111 5.848-3.334 8.07-2.222 2.223-4.913 3.335-8.07 3.335-3.16 0-5.85-1.112-8.072-3.334-2.222-2.223-3.334-4.913-3.334-8.071 0-3.158 1.112-5.849 3.334-8.071 2.223-2.223 4.913-3.334 8.071-3.334 3.158 0 5.849 1.111 8.071 3.334 2.223 2.222 3.334 4.913 3.334 8.07Zm-3.334 29.652v85.975h-16.142V98.868h16.142Z"/><path fill="url(#f)" d="M404.004 99.008h15.415v11.912h.7c2.453-4.204 6.22-7.708 11.3-10.51 5.08-2.804 10.364-4.205 15.853-4.205 10.51 0 18.597 3.007 24.261 9.022 5.664 6.014 8.496 14.568 8.496 25.663v53.953h-16.116v-52.902c-.35-14.014-7.416-21.021-21.196-21.021-6.423 0-11.795 2.598-16.116 7.795s-6.481 11.415-6.481 18.656v47.472h-16.116V99.008Z"/><path fill="#076EFF" d="M348.374 72.76c-2.846-18.788-17.592-33.533-36.38-36.38 18.788-2.847 33.534-17.593 36.38-36.38 2.847 18.787 17.593 33.533 36.38 36.38-18.787 2.847-33.533 17.592-36.38 36.38Z"/></svg>
